src/images/icons/expenses/entertainment.svg

<svg width="52" height="56" viewBox="0 0 52 56" fill="none" xmlns="http://www.w3.org/2000/svg">
<path d="M50.9915 27.517L48.7424 25.2679V3.8683L50.6321 1.97862C51.0026 1.60817 51.0026 1.00748 50.6321 0.637138C50.2615 0.266684 49.661 0.266684 49.2905 0.637138L47.4008 2.52681H26.001L23.7521 0.27784C23.3816 -0.0926134 22.7809 -0.0926134 22.4106 0.27784C22.0401 0.648294 22.0401 1.24898 22.4106 1.61933L24.5635 3.77227L17.8865 32.0664C17.3359 32.7544 17.1516 33.6715 17.4095 34.528C17.6965 35.481 18.4806 36.1959 19.4559 36.3938L23.7139 37.2581C24.5211 37.4221 25.2077 37.9323 25.5973 38.6581C25.9869 39.3839 26.0329 40.2379 25.7234 41.0013C25.22 42.243 23.9028 42.943 22.5925 42.665L6.64041 39.2854C4.23853 38.7764 1.81686 40.1399 1.00584 42.457C0.535527 43.8006 0.672793 45.2793 1.38231 46.5133C2.09194 47.7476 3.30064 48.6103 4.69813 48.8799L4.76419 48.8927C6.02124 49.1352 7.08874 49.9217 7.69304 51.0504C8.29723 52.1792 8.3599 53.5035 7.86465 54.6843C7.66198 55.1675 7.88948 55.7234 8.37259 55.9261C8.49246 55.9763 8.61671 56.0001 8.739 56.0001C9.10978 56.0001 9.46186 55.7814 9.61411 55.418C10.3312 53.708 10.2406 51.7897 9.36539 50.155C8.49028 48.5203 6.94404 47.3811 5.12371 47.0299L5.05765 47.0171C4.20157 46.852 3.46142 46.3237 3.02688 45.5678C2.59233 44.8119 2.50833 43.9065 2.79642 43.0836C3.29299 41.6646 4.77666 40.8301 6.24688 41.1414L22.1986 44.521C24.4105 44.9896 26.6317 43.8092 27.4811 41.7141C28.0034 40.4261 27.9258 38.9852 27.2684 37.7607C26.6111 36.5361 25.453 35.6754 24.0909 35.3989L19.8329 34.5346C19.4094 34.4486 19.2672 34.1187 19.2258 33.9809C19.1921 33.8694 19.1443 33.6165 19.2893 33.3622L47.4965 26.7058L49.6495 28.8588C49.8348 29.0439 50.0777 29.1367 50.3204 29.1367C50.5631 29.1367 50.806 29.0442 50.9913 28.8588C51.3619 28.4881 51.3619 27.8874 50.9915 27.517ZM45.5035 4.42403L36.701 13.2264L27.8984 4.42403H45.5035ZM26.1406 5.34935L35.3593 14.568L20.4459 29.4816L26.1406 5.34935ZM21.7875 30.8233L36.701 15.9097L45.9197 25.1284L21.7875 30.8233ZM46.845 23.3705L38.0425 14.568L46.845 5.76552V23.3705Z" fill="#071F41"/>
</svg>

<!-- Generated by IcoMoon.io -->
<svg version="1.1" xmlns="http://www.w3.org/2000/svg" width="52" height="56" viewBox="0 0 52 56">
<title>entertainment</title>
<path d="M50.992 27.517l-2.249-2.249v-21.4l1.89-1.89c0.371-0.37 0.371-0.971 0-1.341s-0.971-0.37-1.342 0l-1.89 1.89h-21.4l-2.249-2.249c-0.371-0.37-0.971-0.37-1.341 0s-0.371 0.971 0 1.341l2.153 2.153-6.677 28.294c-0.551 0.688-0.735 1.605-0.477 2.462 0.287 0.953 1.071 1.668 2.046 1.866l4.258 0.864c0.807 0.164 1.494 0.674 1.883 1.4s0.436 1.58 0.126 2.343c-0.503 1.242-1.821 1.942-3.131 1.664l-15.952-3.38c-2.402-0.509-4.824 0.854-5.635 3.172-0.47 1.344-0.333 2.822 0.376 4.056s1.918 2.097 3.316 2.367l0.066 0.013c1.257 0.242 2.325 1.029 2.929 2.158s0.667 2.453 0.172 3.634c-0.203 0.483 0.025 1.039 0.508 1.242 0.12 0.050 0.244 0.074 0.366 0.074 0.371 0 0.723-0.219 0.875-0.582 0.717-1.71 0.627-3.628-0.249-5.263s-2.421-2.774-4.242-3.125l-0.066-0.013c-0.856-0.165-1.596-0.693-2.031-1.449s-0.519-1.661-0.23-2.484c0.497-1.419 1.98-2.254 3.45-1.942l15.952 3.38c2.212 0.469 4.433-0.712 5.282-2.807 0.522-1.288 0.445-2.729-0.213-3.953s-1.815-2.085-3.178-2.362l-4.258-0.864c-0.424-0.086-0.566-0.416-0.607-0.554-0.034-0.112-0.081-0.364 0.063-0.619l28.207-6.656 2.153 2.153c0.185 0.185 0.428 0.278 0.671 0.278s0.486-0.092 0.671-0.278c0.371-0.371 0.371-0.971 0-1.342zM45.503 4.424l-8.803 8.802-8.803-8.802h17.605zM26.141 5.349l9.219 9.219-14.913 14.914 5.695-24.132zM21.787 30.823l14.914-14.914 9.219 9.219-24.132 5.695zM46.845 23.37l-8.803-8.803 8.803-8.803v17.605z"></path>
</svg>
